src/battery-charging.svg

<?xml version="1.0" encoding="utf-8"?>
<!-- Generated by IcoMoon.io -->
<!DOCTYPE svg PUBLIC "-//W3C//DTD SVG 1.1//EN" "http://www.w3.org/Graphics/SVG/1.1/DTD/svg11.dtd">
<svg version="1.1" xmlns="http://www.w3.org/2000/svg" xmlns:xlink="http://www.w3.org/1999/xlink" width="512" height="512" viewBox="0 0 512 512">
<path fill="#000000" d="M42.1 384h381.1c5.5 0 9.9-4.5 9.9-10v-54h36.9c5.6 0 10.1-4.5 10.1-10v-108c0-5.5-4.5-10-10.1-10h-37v-54c0-5.5-4.3-10-9.9-10h-381c-5.6 0-10.1 4.5-10.1 10v236c0 5.5 4.5 10 10.1 10zM257.4 160l-27.9 81h61.5l-100.4 111 27.9-81h-61.5l100.4-111z"></path>
</svg>

<?xml version="1.0" encoding="utf-8"?>
<!-- Generator: Adobe Illustrator 16.2.1, SVG Export Plug-In . SVG Version: 6.00 Build 0)  -->
<!DOCTYPE svg PUBLIC "-//W3C//DTD SVG 1.1//EN" "http://www.w3.org/Graphics/SVG/1.1/DTD/svg11.dtd">
<svg version="1.1" id="Layer_1" xmlns="http://www.w3.org/2000/svg" xmlns:xlink="http://www.w3.org/1999/xlink" x="0px" y="0px"
	 width="512px" height="512px" viewBox="0 0 512 512" style="enable-background:new 0 0 512 512;" xml:space="preserve">
<path d="M42.1,384h381.1c5.5,0,9.9-4.5,9.9-10v-54h36.9c5.6,0,10.1-4.5,10.1-10V202c0-5.5-4.5-10-10.1-10H433v-54
	c0-5.5-4.3-10-9.9-10H42.1c-5.6,0-10.1,4.5-10.1,10v236C32,379.5,36.5,384,42.1,384z M257.4,160l-27.9,81H291L190.6,352l27.9-81H157
	L257.4,160z"/>
</svg>
